X:25
T:Bourr\'ee \`a B\'erot
C:Dominique Forges
M:2/4
R:bourr\'ee 2 temps
Q:250
L:1/8
K:Gm
B4|c4|A>d cB|AG/A/ BG|B4|c4|A>d cB|A4:|
|:G>A BG|d>c BA|G>A BG|A2 D2|G>A BG|d>c BA|G>A B^F|G4:|
